X:157
T:score238
L:1/4
Q:1/4=96
M:2/2
I:linebreak $
K:C
!p! (c/>e/ | .g) .g .g (c' | .g) .g .g (e/>c/ |!<(! .B) .B .c .c!<)! |$ d z!mf! z (G/>d/ | %5
 .f) (f/>g/ .e) (e/>f/ |"_dim." .d) (d/>e/ .c) .c |$ .d .d .B .B | c z z2 |] %9
